ui/apps/pmm/src/icons/status-down.svg

<svg width="20" height="20" viewBox="0 0 20 20" fill="none" xmlns="http://www.w3.org/2000/svg">
<rect x="5" y="5" width="10" height="10" rx="2" fill="#2C323E"/>
<mask id="path-3-outside-1_335_7397" maskUnits="userSpaceOnUse" x="0.5" y="0.5" width="19" height="19" fill="black">
<rect fill="white" x="0.5" y="0.5" width="19" height="19"/>
<path d="M17.5 6.875V13.125L13.125 17.5H6.875L2.5 13.125V6.875L6.875 2.5H13.125L17.5 6.875ZM10 8.83301L7.625 6.45801L6.45801 7.625L8.83301 10L6.45801 12.375L7.625 13.542L10 11.167L12.375 13.542L13.542 12.375L11.167 10L13.542 7.625L12.375 6.45801L10 8.83301Z"/>
</mask>
<path class="status-down" d="M17.5 6.875V13.125L13.125 17.5H6.875L2.5 13.125V6.875L6.875 2.5H13.125L17.5 6.875ZM10 8.83301L7.625 6.45801L6.45801 7.625L8.83301 10L6.45801 12.375L7.625 13.542L10 11.167L12.375 13.542L13.542 12.375L11.167 10L13.542 7.625L12.375 6.45801L10 8.83301Z" fill="#FEA195"/>
<path class="background" d="M17.5 6.875H19.5C19.5 6.34457 19.2893 5.83586 18.9142 5.46079L17.5 6.875ZM17.5 13.125L18.9142 14.5392C19.2893 14.1641 19.5 13.6554 19.5 13.125H17.5ZM13.125 17.5V19.5C13.6554 19.5 14.1641 19.2893 14.5392 18.9142L13.125 17.5ZM6.875 17.5L5.46079 18.9142C5.83586 19.2893 6.34457 19.5 6.875 19.5V17.5ZM2.5 13.125H0.5C0.5 13.6554 0.710714 14.1641 1.08579 14.5392L2.5 13.125ZM2.5 6.875L1.08579 5.46079C0.710714 5.83586 0.5 6.34457 0.5 6.875H2.5ZM6.875 2.5V0.5C6.34457 0.5 5.83586 0.710714 5.46079 1.08579L6.875 2.5ZM13.125 2.5L14.5392 1.08579C14.1641 0.710714 13.6554 0.5 13.125 0.5V2.5ZM10 8.83301L8.58579 10.2472C9.36684 11.0283 10.6332 11.0283 11.4142 10.2472L10 8.83301ZM7.625 6.45801L9.03921 5.04379C8.25816 4.26275 6.99184 4.26275 6.21079 5.04379L7.625 6.45801ZM6.45801 7.625L5.04379 6.21079C4.26275 6.99184 4.26275 8.25816 5.04379 9.03921L6.45801 7.625ZM8.83301 10L10.2472 11.4142C11.0283 10.6332 11.0283 9.36684 10.2472 8.58579L8.83301 10ZM6.45801 12.375L5.04379 10.9608C4.26275 11.7418 4.26275 13.0082 5.04379 13.7892L6.45801 12.375ZM7.625 13.542L6.21079 14.9562C6.99184 15.7373 8.25816 15.7373 9.03921 14.9562L7.625 13.542ZM10 11.167L11.4142 9.75278C10.6332 8.97173 9.36684 8.97173 8.58579 9.75278L10 11.167ZM12.375 13.542L10.9608 14.9562C11.7418 15.7373 13.0082 15.7373 13.7892 14.9562L12.375 13.542ZM13.542 12.375L14.9562 13.7892C15.7373 13.0082 15.7373 11.7418 14.9562 10.9608L13.542 12.375ZM11.167 10L9.75278 8.58579C8.97173 9.36684 8.97173 10.6332 9.75278 11.4142L11.167 10ZM13.542 7.625L14.9562 9.03921C15.7373 8.25816 15.7373 6.99184 14.9562 6.21079L13.542 7.625ZM12.375 6.45801L13.7892 5.04379C13.0082 4.26275 11.7418 4.26275 10.9608 5.04379L12.375 6.45801ZM17.5 6.875H15.5V13.125H17.5H19.5V6.875H17.5ZM17.5 13.125L16.0858 11.7108L11.7108 16.0858L13.125 17.5L14.5392 18.9142L18.9142 14.5392L17.5 13.125ZM13.125 17.5V15.5H6.875V17.5V19.5H13.125V17.5ZM6.875 17.5L8.28921 16.0858L3.91421 11.7108L2.5 13.125L1.08579 14.5392L5.46079 18.9142L6.875 17.5ZM2.5 13.125H4.5V6.875H2.5H0.5V13.125H2.5ZM2.5 6.875L3.91421 8.28921L8.28921 3.91421L6.875 2.5L5.46079 1.08579L1.08579 5.46079L2.5 6.875ZM6.875 2.5V4.5H13.125V2.5V0.5H6.875V2.5ZM13.125 2.5L11.7108 3.91421L16.0858 8.28921L17.5 6.875L18.9142 5.46079L14.5392 1.08579L13.125 2.5ZM10 8.83301L11.4142 7.41879L9.03921 5.04379L7.625 6.45801L6.21079 7.87222L8.58579 10.2472L10 8.83301ZM7.625 6.45801L6.21079 5.04379L5.04379 6.21079L6.45801 7.625L7.87222 9.03921L9.03921 7.87222L7.625 6.45801ZM6.45801 7.625L5.04379 9.03921L7.41879 11.4142L8.83301 10L10.2472 8.58579L7.87222 6.21079L6.45801 7.625ZM8.83301 10L7.41879 8.58579L5.04379 10.9608L6.45801 12.375L7.87222 13.7892L10.2472 11.4142L8.83301 10ZM6.45801 12.375L5.04379 13.7892L6.21079 14.9562L7.625 13.542L9.03921 12.1278L7.87222 10.9608L6.45801 12.375ZM7.625 13.542L9.03921 14.9562L11.4142 12.5812L10 11.167L8.58579 9.75278L6.21079 12.1278L7.625 13.542ZM10 11.167L8.58579 12.5812L10.9608 14.9562L12.375 13.542L13.7892 12.1278L11.4142 9.75278L10 11.167ZM12.375 13.542L13.7892 14.9562L14.9562 13.7892L13.542 12.375L12.1278 10.9608L10.9608 12.1278L12.375 13.542ZM13.542 12.375L14.9562 10.9608L12.5812 8.58579L11.167 10L9.75278 11.4142L12.1278 13.7892L13.542 12.375ZM11.167 10L12.5812 11.4142L14.9562 9.03921L13.542 7.625L12.1278 6.21079L9.75278 8.58579L11.167 10ZM13.542 7.625L14.9562 6.21079L13.7892 5.04379L12.375 6.45801L10.9608 7.87222L12.1278 9.03921L13.542 7.625ZM12.375 6.45801L10.9608 5.04379L8.58579 7.41879L10 8.83301L11.4142 10.2472L13.7892 7.87222L12.375 6.45801Z" fill="#2C323E" mask="url(#path-3-outside-1_335_7397)"/>
</svg>

<svg xmlns="http://www.w3.org/2000/svg" width="20" height="20" fill="none"><path class="background" fill="#fff" d="M6.272 1h7.456L19 6.272v7.456L13.728 19H6.272L1 13.728V6.272z"/><path class="status-down" fill="#cc352e" fill-rule="evenodd" d="M17.5 6.875v6.25L13.125 17.5h-6.25L2.5 13.125v-6.25L6.875 2.5h6.25zM10 8.833 7.625 6.458 6.458 7.625 8.833 10l-2.375 2.375 1.167 1.167L10 11.167l2.375 2.375 1.167-1.167L11.167 10l2.375-2.375-1.167-1.167z" clip-rule="evenodd"/></svg>
